X:322
T: Si ji ge
N: C0954
O: China, nan Jiangsu
S: MM,    S. 157, Quelle S. Bandprotokoll)]
N: Die Saengerin Lei Huilan ist Angehoerige der Zhuang Minderheit und
N: studiert an der Guangzhouer Musikhochschule.
N: Aufgenommen am 5.5.87    cf. Nr. 121
R: Xiaodiao, Shidiao, Kuqiqi, Mengjiangn diao. Siji sixiang]
M: 2/4
L: 1/16
K: A
c2B2c2e2 | A2F2e2c2 | B6cB
A2AFA2B2 | A2F2E2C2 | E8
F4A2E2 | F3AB2c2 | B2A2F2E2 | F8
F3AB2c2 | B2A2F2E2 | C3EA2F2 | E8

